pokemon/types-chart/assets/images/attack.svg

<svg fill="none" height="256" viewBox="0 0 256 256" width="256" xmlns="http://www.w3.org/2000/svg"><path d="m224 197.12-32.64-34.56 30.72-30.72-28.8-28.8-28.8 30.72-90.24-101.76-38.4 3.84-3.84 38.4 101.76 90.24-30.72 30.72 26.88 26.88 32.64-30.72 34.56 32.64z" fill="#fff"/></svg>

<svg width="256" height="256" viewBox="0 0 256 256" fill="none" xmlns="http://www.w3.org/2000/svg">
<path d="M224 197.12L191.36 162.56L222.08 131.84L193.28 103.04L164.48 133.76L74.24 32L35.84 35.84L32 74.24L133.76 164.48L103.04 195.2L129.92 222.08L162.56 191.36L197.12 224L224 197.12Z" fill="white"/>
</svg>
